Leica_M9_STD_33_Rec709.cube
TITLE "Leica_M9_STD_33_Rec709"
# ROGER WANG BEIJING 2026-05-16
LUT_3D_SIZE 33
DOMAIN_MIN 0.0 0.0 0.0
DOMAIN_MAX 1.0 1.0 1.0
0.00000000 0.00000000 0.00000000
0.02010487 0.00000000 0.00000000
0.04076431 0.00000000 0.00000000
0.06337217 0.00000000 0.00000000
0.08586344 0.00000000 0.00000000
0.10796568 0.00000000 0.00000000
0.13016395 0.00000000 0.00000000
0.15254907 0.00000000 0.00000000
0.17856777 0.00000000 0.00000000
0.20548653 0.00000000 0.00000000
0.23476545 0.00000000 0.00000000
0.26484069 0.00000000 0.00000000
0.29766154 0.00000000 0.00000000
0.33437292 0.00000000 0.00000000
0.37182921 0.00000000 0.00000000
0.41370250 0.00000000 0.00000000
0.45926509 0.00000000 0.00000000
0.50452226 0.00000000 0.00000000
0.54935697 0.00000000 0.00000000
0.59085159 0.00000000 0.00000000
0.63232670 0.00000000 0.00000000
0.67084471 0.00000000 0.00000000
0.70950147 0.00000000 0.00000000
0.74653657 0.00000000 0.00000000
0.78204027 0.00000000 0.00000000
0.81643644 0.00000000 0.00000000
0.85059767 0.00000000 0.00000000
0.88413690 0.00000000 0.00000000
0.91677312 0.00000000 0.00000000
0.94780874 0.00000000 0.00000000
0.97754543 0.00000000 0.00000000
1.00000000 0.00000000 0.00000000
1.00000000 0.00000000 0.00000000
0.00000000 0.02008368 0.00000000
0.02007545 0.02006825 0.00000000
0.04069956 0.02003655 0.00000000
0.06326622 0.01992771 0.00000000
0.08576408 0.01965762 0.00000000
0.10784567 0.01911623 0.00000000
0.13002649 0.01817057 0.00000000
0.15231313 0.01667186 0.00000000
0.17840526 0.01446457 0.00000000
0.20510073 0.01139624 0.00000000
0.23458013 0.00758867 0.00000000
0.26466291 0.00329527 0.00000000
0.29716256 0.00000000 0.00000000
0.33392822 0.00000000 0.00000000
0.37165785 0.00000000 0.00000000
0.41313063 0.00000000 0.00000000
0.45910556 0.00000000 0.00000000
0.50392079 0.00000000 0.00000000
0.54874462 0.00000000 0.00000000
0.59025053 0.00000000 0.00000000
0.63212039 0.00000000 0.00000000
0.67071661 0.00000000 0.00000000
0.70937787 0.00000000 0.00000000
0.74641670 0.00000000 0.00000000
0.78192345 0.00000000 0.00000000
0.81597137 0.00000000 0.00000000
0.85048564 0.00000000 0.00000000
0.88356180 0.00000000 0.00000000
0.91666888 0.00000000 0.00000000
0.94770503 0.00000000 0.00000000
0.97726309 0.00000000 0.00000000
1.00000000 0.00000000 0.00000000
1.00000000 0.00000000 0.00000000
0.00000000 0.04068987 0.00000000
0.02002450 0.04066216 0.00000000
0.04066128 0.04063597 0.00000000
0.06320013 0.04057411 0.00000000
0.08569003 0.04040854 0.00000000
0.10774514 0.04004709 0.00000000
0.12990229 0.03937799 0.00000000
0.15216832 0.03827014 0.00000000
0.17824491 0.03676551 0.00000000
0.20471001 0.03481198 0.00000000
0.23424298 0.03205287 0.00000000
0.26447628 0.02781129 0.00000000
0.29663285 0.02155000 0.00000000
0.33336275 0.01395886 0.00000000
0.37147270 0.00568536 0.00000000
0.41254299 0.00000000 0.00000000
0.45870546 0.00000000 0.00000000
0.50334879 0.00000000 0.00000000
0.54807094 0.00000000 0.00000000
0.58983169 0.00000000 0.00000000
0.63151300 0.00000000 0.00000000
0.67057456 0.00000000 0.00000000
0.70924058 0.00000000 0.00000000
0.74628334 0.00000000 0.00000000
0.78179330 0.00000000 0.00000000
0.81583771 0.00000000 0.00000000
0.85036056 0.00000000 0.00000000
0.88340842 0.00000000 0.00000000
0.91655227 0.00000000 0.00000000
0.94758896 0.00000000 0.00000000
0.97714396 0.00000000 0.00000000
1.00000000 0.00000000 0.00000000
1.00000000 0.00000000 0.00000000
0.00000000 0.06319419 0.00000000
0.01984703 0.06315416 0.00000000
0.04056394 0.06311735 0.00000000
0.06312692 0.06306641 0.00000000
0.08561912 0.06296475 0.00000000
0.10764098 0.06273892 0.00000000
0.12976354 0.06229657 0.00000000
0.15199822 0.06153497 0.00000000
0.17804828 0.06034312 0.00000000
0.20425774 0.05860352 0.00000000
0.23367393 0.05619214 0.00000000
0.26423142 0.05297519 0.00000000
0.29621454 0.04946064 0.00000000
0.33260334 0.04532362 0.00000000
0.37115500 0.03857146 0.00000000
0.41226259 0.03145869 0.00000000
0.45783659 0.02055109 0.00000000
0.50309822 0.00784936 0.00000000
0.54734412 0.00000000 0.00000000
0.58961774 0.00000000 0.00000000
0.63054257 0.00000000 0.00000000
0.67037599 0.00000000 0.00000000
0.70900481 0.00000000 0.00000000
0.74601635 0.00000000 0.00000000
0.78161033 0.00000000 0.00000000
0.81565823 0.00000000 0.00000000
0.85018419 0.00000000 0.00000000
0.88323649 0.00000000 0.00000000
0.91638749 0.00000000 0.00000000
0.94742490 0.00000000 0.00000000
0.97697537 0.00000000 0.00000000
1.00000000 0.00000000 0.00000000
1.00000000 0.00000000 0.00000000
0.00000000 0.08562422 0.00000000
0.01941758 0.08558950 0.00000000
0.04029456 0.08555531 0.00000000
0.06296962 0.08551256 0.00000000
0.08553558 0.08545423 0.00000000
0.10753980 0.08535117 0.00000000
0.12962476 0.08515172 0.00000000
0.15181833 0.08475261 0.00000000
0.17783057 0.08388055 0.00000000
0.20396015 0.08257258 0.00000000
0.23300491 0.08073819 0.00000000
0.26393732 0.07862352 0.00000000
0.29590759 0.07648082 0.00000000
0.33169317 0.07300888 0.00000000
0.37015809 0.06853224 0.00000000
0.41195222 0.06409653 0.00000000
0.45671865 0.05700547 0.00000000
0.50279029 0.04920420 0.00000000
0.54705833 0.03985154 0.00000000
0.58934183 0.02837656 0.00000000
0.62971331 0.01171368 0.00000000
0.67011816 0.00000000 0.00000000
0.70779779 0.00000000 0.00000000
0.74469113 0.00000000 0.00000000
0.78084215 0.00000000 0.00000000
0.81542304 0.00000000 0.00000000
0.84995269 0.00000000 0.00000000
0.88301042 0.00000000 0.00000000
0.91617056 0.00000000 0.00000000
0.94720876 0.00000000 0.00000000
0.97675299 0.00000000 0.00000000
1.00000000 0.00000000 0.00000000
1.00000000 0.00000000 0.00000000
0.00000000 0.10756285 0.00000000
0.01857779 0.10752320 0.00000000
0.03971689 0.10748222 0.00000000
0.06260606 0.10742965 0.00000000
0.08537831 0.10736570 0.00000000
0.10741726 0.10728023 0.00000000
0.12948706 0.10714201 0.00000000
0.15164128 0.10690125 0.00000000
0.17760826 0.10650130 0.00000000
0.20369548 0.10588593 0.00000000
0.23227490 0.10500138 0.00000000
0.26319510 0.10318046 0.00000000
0.29555781 0.10063818 0.00000000
0.33123127 0.09838427 0.00000000
0.36897969 0.09540740 0.00000000
0.41118319 0.09111218 0.00000000
0.45617609 0.08756529 0.00000000
0.50165013 0.08259722 0.00000000
0.54634999 0.07654456 0.00000000
0.58900694 0.06880604 0.00000000
0.62938856 0.06045488 0.00000000
0.66980236 0.04939482 0.00000000
0.70662137 0.03643087 0.00000000
0.74366690 0.01903823 0.00000000
0.77933088 0.00000000 0.00000000
0.81513208 0.00000000 0.00000000
0.84966569 0.00000000 0.00000000
0.88272955 0.00000000 0.00000000
0.91590066 0.00000000 0.00000000
0.94693970 0.00000000 0.00000000
0.97647569 0.00000000 0.00000000
1.00000000 0.00000000 0.00000000
1.00000000 0.00000000 0.00000000
0.00000000 0.12953795 0.00000000
0.01714388 0.12949447 0.00000000
0.03867146 0.12944816 0.00000000
0.06190254 0.12938681 0.00000000
0.08506152 0.12931201 0.00000000
0.10720858 0.12922255 0.00000000
0.12931824 0.12910517 0.00000000
0.15146096 0.12892768 0.00000000
0.17738918 0.12864294 0.00000000
0.20342942 0.12819939 0.00000000
0.23152079 0.12754822 0.00000000
0.26228645 0.12664548 0.00000000
0.29488747 0.12545223 0.00000000
0.33083270 0.12344042 0.00000000
0.36828099 0.12021449 0.00000000
0.40976240 0.11794756 0.00000000
0.45567651 0.11526951 0.00000000
0.50023311 0.11029065 0.00000000
0.54470214 0.10667088 0.00000000
0.58785883 0.10109666 0.00000000
0.62900958 0.09532943 0.00000000
0.66847364 0.08854486 0.00000000
0.70625445 0.08086007 0.00000000
0.74331220 0.07180590 0.00000000
0.77883147 0.06110114 0.00000000
0.81478693 0.04749717 0.00000000
0.84932442 0.03082394 0.00000000
0.88239475 0.00696601 0.00000000
0.91557840 0.00000000 0.00000000
0.94661823 0.00000000 0.00000000
0.97614374 0.00000000 0.00000000
1.00000000 0.00000000 0.00000000
1.00000000 0.00000000 0.00000000
0.00000000 0.15154992 0.00000000
0.01492020 0.15150370 0.00000000
0.03708254 0.15145351 0.00000000
0.06071884 0.15138540 0.00000000
0.08430855 0.15130048 0.00000000
0.10683181 0.15120030 0.00000000
0.12905259 0.15108142 0.00000000
0.15123962 0.15092812 0.00000000
0.17716075 0.15070829 0.00000000
0.20316477 0.15037799 0.00000000
0.23112721 0.14989091 0.00000000
0.26136002 0.14920489 0.00000000
0.29378782 0.14828407 0.00000000
0.32997692 0.14709875 0.00000000
0.36783964 0.14500125 0.00000000
0.40887025 0.14199011 0.00000000
0.45405922 0.13987806 0.00000000
0.49973932 0.13742041 0.00000000
0.54401719 0.13357340 0.00000000
0.58632595 0.12954017 0.00000000
0.62768776 0.12591880 0.00000000
0.66714773 0.11999856 0.00000000
0.70584303 0.11543272 0.00000000
0.74290707 0.10845655 0.00000000
0.77843124 0.10137568 0.00000000
0.81439041 0.09280675 0.00000000
0.84890372 0.08490365 0.00000000
0.88200811 0.07371899 0.00000000
0.91361835 0.06051064 0.00000000
0.94613437 0.04418321 0.00000000
0.97575866 0.02164281 0.00000000
1.00000000 0.00000000 0.00000000
1.00000000 0.00000000 0.00000000
0.00000000 0.17729739 0.00000000
0.01171481 0.17724944 0.00000000
0.03505285 0.17719670 0.00000000
0.05890891 0.17712392 0.00000000
0.08295791 0.17703132 0.00000000
0.10620841 0.17692065 0.00000000
0.12861344 0.17679233 0.00000000
0.15091286 0.17664071 0.00000000
0.17688199 0.17644844 0.00000000
0.20288373 0.17611840 0.00000000
0.23081396 0.17533621 0.00000000
0.26069588 0.17423750 0.00000000
0.29268051 0.17275983 0.00000000
0.32867658 0.17177172 0.00000000
0.36662828 0.17059319 0.00000000
0.40832632 0.16913078 0.00000000
0.45228005 0.16569745 0.00000000
0.49823243 0.16360776 0.00000000
0.54266090 0.16083693 0.00000000
0.58584749 0.15689109 0.00000000
0.62625116 0.15214289 0.00000000
0.66668439 0.14891637 0.00000000
0.70534447 0.14446878 0.00000000
0.74214472 0.13954444 0.00000000
0.77798412 0.13464847 0.00000000
0.81354111 0.12853504 0.00000000
0.84672342 0.12219539 0.00000000
0.88157259 0.11546195 0.00000000
0.91286709 0.10700077 0.00000000
0.94403323 0.09767368 0.00000000
0.97532288 0.08723441 0.00000000
1.00000000 0.07521223 0.00000000
1.00000000 0.05949703 0.00000000
0.00000000 0.20307612 0.00000000
0.00761152 0.20302737 0.00000000
0.03210042 0.20297328 0.00000000
0.05632107 0.20289776 0.00000000
0.08099143 0.20279954 0.00000000
0.10526810 0.20262295 0.00000000
0.12793126 0.20231259 0.00000000
0.15041038 0.20195612 0.00000000
0.17649153 0.20153680 0.00000000
0.20231417 0.20101389 0.00000000
0.23047703 0.20032124 0.00000000
0.26033181 0.19942419 0.00000000
0.29212929 0.19881295 0.00000000
0.32768133 0.19806357 0.00000000
0.36511689 0.19711153 0.00000000
0.40673500 0.19543808 0.00000000
0.45063021 0.19268661 0.00000000
0.49688457 0.19104417 0.00000000
0.54116369 0.18837468 0.00000000
0.58523298 0.18516865 0.00000000
0.62574307 0.18237735 0.00000000
0.66536044 0.17827185 0.00000000
0.70307890 0.17438320 0.00000000
0.74008011 0.17029500 0.00000000
0.77749452 0.16494635 0.00000000
0.81155364 0.16045598 0.00000000
0.84608921 0.15413891 0.00000000
0.87994088 0.14875674 0.00000000
0.91240025 0.14196822 0.00000000
0.94354959 0.13656106 0.00000000
0.97483960 0.12876259 0.00000000
1.00000000 0.12038751 0.00000000
1.00000000 0.11154447 0.00000000
0.00000000 0.23073109 0.00000000
0.00293179 0.23068234 0.00000000
0.02742027 0.23062792 0.00000000
0.05279414 0.23055131 0.00000000
0.07863244 0.23045113 0.00000000
0.10342619 0.23032779 0.00000000
0.12694837 0.23018237 0.00000000
0.14967154 0.22991474 0.00000000
0.17558164 0.22947043 0.00000000
0.20129278 0.22893129 0.00000000
0.23003855 0.22826905 0.00000000
0.25993704 0.22741766 0.00000000
0.29171309 0.22665520 0.00000000
0.32723275 0.22604677 0.00000000
0.36457235 0.22526991 0.00000000
0.40553708 0.22430571 0.00000000
0.45008585 0.22163376 0.00000000
0.49597258 0.21991939 0.00000000
0.54062088 0.21653245 0.00000000
0.58296460 0.21468608 0.00000000
0.62429617 0.21138024 0.00000000
0.66378093 0.20858623 0.00000000
0.70248404 0.20437965 0.00000000
0.73955101 0.20019536 0.00000000
0.77623086 0.19683481 0.00000000
0.81102670 0.19182921 0.00000000
0.84556275 0.18678650 0.00000000
0.87864785 0.18262352 0.00000000
0.91189211 0.17707460 0.00000000
0.94303955 0.17094312 0.00000000
0.97431241 0.16446617 0.00000000
1.00000000 0.15760433 0.00000000
1.00000000 0.15030766 0.00000000
0.00000000 0.26025608 0.00000000
0.00000000 0.26020802 0.00000000
0.02048753 0.26015413 0.00000000
0.04896802 0.26007780 0.00000000
0.07624298 0.25997713 0.00000000
0.10058778 0.25985186 0.00000000
0.12561792 0.25965019 0.00000000
0.14864951 0.25926230 0.00000000
0.17393764 0.25875427 0.00000000
0.19988941 0.25817562 0.00000000
0.22882207 0.25750088 0.00000000
0.25911283 0.25672682 0.00000000
0.29125991 0.25628181 0.00000000
0.32649334 0.25577438 0.00000000
0.36386519 0.25455694 0.00000000
0.40496850 0.25254644 0.00000000
0.44838140 0.25150551 0.00000000
0.49396890 0.25034970 0.00000000
0.53963003 0.24740348 0.00000000
0.58217465 0.24540575 0.00000000
0.62277785 0.24205394 0.00000000
0.66321629 0.24007081 0.00000000
0.70192128 0.23619326 0.00000000
0.73898946 0.23301132 0.00000000
0.77451195 0.22885415 0.00000000
0.81046447 0.22503756 0.00000000
0.84499972 0.22030363 0.00000000
0.87808768 0.21535872 0.00000000
0.91134619 0.21019235 0.00000000
0.94249175 0.20553331 0.00000000
0.97334244 0.19913921 0.00000000
1.00000000 0.19351633 0.00000000
1.00000000 0.18770770 0.00000000
0.00000000 0.29164454 0.00000000
0.00000000 0.29159770 0.00000000
0.01205522 0.29154500 0.00000000
0.04399031 0.29147004 0.00000000
0.07216344 0.29137057 0.00000000
0.09809739 0.29124577 0.00000000
0.12338453 0.29109550 0.00000000
0.14730989 0.29092008 0.00000000
0.17222640 0.29071967 0.00000000
0.19876954 0.29049294 0.00000000
0.22717416 0.29001328 0.00000000
0.25761025 0.28918855 0.00000000
0.29073271 0.28820293 0.00000000
0.32498697 0.28728756 0.00000000
0.36224082 0.28674126 0.00000000
0.40328493 0.28549737 0.00000000
0.44714486 0.28339328 0.00000000
0.49333634 0.28236223 0.00000000
0.53762643 0.27943162 0.00000000
0.57994208 0.27810062 0.00000000
0.62218911 0.27549476 0.00000000
0.66084858 0.27293249 0.00000000
0.69980419 0.26944592 0.00000000
0.73795667 0.26561074 0.00000000
0.77392041 0.26280734 0.00000000
0.80987063 0.25864487 0.00000000
0.84440374 0.25409859 0.00000000
0.87749323 0.25043868 0.00000000
0.91076583 0.24567997 0.00000000
0.94190986 0.24086577 0.00000000
0.97147324 0.23578899 0.00000000
1.00000000 0.23050404 0.00000000
1.00000000 0.22499708 0.00000000
0.00000000 0.32630814 0.00000000
0.00000000 0.32617478 0.00000000
0.00328125 0.32602440 0.00000000
0.03653440 0.32580985 0.00000000
0.06748789 0.32552388 0.00000000
0.09443211 0.32516304 0.00000000
0.11991834 0.32472545 0.00000000
0.14500836 0.32423731 0.00000000
0.17088026 0.32394479 0.00000000
0.19768195 0.32371790 0.00000000
0.22613129 0.32346219 0.00000000
0.25629858 0.32315818 0.00000000
0.28961528 0.32220404 0.00000000
0.32382311 0.32103993 0.00000000
0.36115576 0.32011373 0.00000000
0.40207799 0.31953388 0.00000000
0.44616445 0.31774079 0.00000000
0.49120898 0.31614469 0.00000000
0.53663270 0.31429482 0.00000000
0.57932669 0.31217802 0.00000000
0.61980128 0.31089258 0.00000000
0.66015088 0.30760534 0.00000000
0.69884570 0.30423875 0.00000000
0.73590168 0.30115276 0.00000000
0.77200767 0.29770198 0.00000000
0.80734493 0.29387748 0.00000000
0.84186456 0.29078740 0.00000000
0.87686765 0.28660959 0.00000000
0.90884383 0.28207438 0.00000000
0.94129718 0.27779410 0.00000000
0.97083248 0.27300800 0.00000000
1.00000000 0.26701625 0.00000000
1.00000000 0.26248609 0.00000000
0.00000000 0.36205395 0.00000000
0.00000000 0.36191834 0.00000000
0.00000000 0.36176516 0.00000000
0.02807705 0.36155929 0.00000000
0.06180262 0.36142321 0.00000000
0.09008184 0.36128714 0.00000000
0.11734005 0.36114387 0.00000000
0.14173668 0.36097410 0.00000000
0.16922357 0.36077749 0.00000000
0.19630351 0.36039323 0.00000000
0.22501753 0.35961888 0.00000000
0.25516650 0.35872619 0.00000000
0.28746628 0.35786217 0.00000000
0.32303815 0.35747969 0.00000000
0.36030524 0.35698305 0.00000000
0.40118240 0.35546112 0.00000000
0.44412482 0.35408121 0.00000000
0.49033572 0.35315517 0.00000000
0.53456828 0.35068268 0.00000000
0.57798294 0.34933405 0.00000000
0.61909665 0.34671621 0.00000000
0.65952050 0.34388404 0.00000000
0.69711210 0.34222451 0.00000000
0.73526347 0.33885148 0.00000000
0.77076681 0.33554096 0.00000000
0.80669717 0.33201213 0.00000000
0.84121203 0.32813300 0.00000000
0.87527153 0.32405370 0.00000000
0.90758935 0.32000979 0.00000000
0.93916147 0.31584239 0.00000000
0.97016181 0.31153605 0.00000000
1.00000000 0.30708611 0.00000000
1.00000000 0.30130831 0.00000000
0.00000000 0.40201886 0.00000000
0.00000000 0.40197845 0.00000000
0.00000000 0.40193274 0.00000000
0.01532288 0.40186723 0.00000000
0.05370623 0.40177938 0.00000000
0.08603952 0.40165145 0.00000000
0.11377167 0.40138823 0.00000000
0.13932310 0.40083694 0.00000000
0.16541871 0.40019516 0.00000000
0.19286276 0.39946115 0.00000000
0.22287829 0.39886380 0.00000000
0.25238446 0.39858788 0.00000000
0.28648184 0.39827860 0.00000000
0.32061171 0.39734196 0.00000000
0.35802006 0.39600641 0.00000000
0.39899250 0.39522112 0.00000000
0.44344604 0.39449830 0.00000000
0.48826622 0.39240653 0.00000000
0.53335058 0.39146404 0.00000000
0.57621341 0.38897435 0.00000000
0.61763087 0.38595338 0.00000000
0.65710883 0.38399301 0.00000000
0.69568539 0.38172415 0.00000000
0.73333792 0.37858114 0.00000000
0.77010173 0.37526927 0.00000000
0.80602568 0.37183875 0.00000000
0.84053457 0.36829073 0.00000000
0.87361273 0.36462571 0.00000000
0.90692100 0.36084331 0.00000000
0.93815376 0.35672375 0.00000000
0.96946399 0.35179134 0.00000000
0.99952353 0.34692488 0.00000000
1.00000000 0.34265151 0.00000000
0.00000000 0.44406109 0.00000000
0.00000000 0.44402319 0.00000000
0.00000000 0.44398027 0.00000000
0.00245514 0.44391868 0.00000000
0.04571645 0.44383594 0.00000000
0.07943601 0.44373035 0.00000000
0.10888724 0.44360048 0.00000000
0.13652642 0.44339071 0.00000000
0.16314250 0.44273600 0.00000000
0.19097269 0.44198347 0.00000000
0.22022763 0.44113039 0.00000000
0.25103461 0.44070085 0.00000000
0.28350307 0.44040282 0.00000000
0.31941578 0.43975813 0.00000000
0.35699289 0.43841677 0.00000000
0.39808547 0.43689669 0.00000000
0.44092525 0.43521033 0.00000000
0.48715457 0.43452080 0.00000000
0.53140823 0.43269134 0.00000000
0.57413869 0.43127258 0.00000000
0.61592817 0.42886737 0.00000000
0.65633810 0.42731819 0.00000000
0.69501172 0.42468006 0.00000000
0.73204351 0.42164398 0.00000000
0.76846764 0.41858104 0.00000000
0.80342957 0.41524401 0.00000000
0.83890168 0.41188332 0.00000000
0.87290778 0.40837737 0.00000000
0.90622744 0.40450149 0.00000000
0.93745952 0.40016662 0.00000000
0.96874132 0.39559223 0.00000000
0.99878194 0.39164296 0.00000000
1.00000000 0.38578975 0.00000000
0.00000000 0.48798407 0.00000000
0.00000000 0.48784788 0.00000000
0.00000000 0.48772900 0.00000000
0.00000000 0.48765708 0.00000000
0.03431908 0.48756339 0.00000000
0.07296351 0.48746428 0.00000000
0.10478207 0.48734207 0.00000000
0.13148530 0.48719543 0.00000000
0.15929989 0.48694899 0.00000000
0.18763616 0.48618589 0.00000000
0.21668949 0.48531728 0.00000000
0.24858268 0.48449224 0.00000000
0.28167743 0.48420654 0.00000000
0.31643206 0.48378799 0.00000000
0.35418798 0.48252321 0.00000000
0.39540245 0.48128647 0.00000000
0.43980637 0.48083600 0.00000000
0.48464205 0.47920795 0.00000000
0.52948964 0.47789348 0.00000000
0.57298986 0.47633275 0.00000000
0.61501689 0.47462287 0.00000000
0.65420158 0.47212028 0.00000000
0.69253943 0.47039618 0.00000000
0.73130142 0.46645785 0.00000000
0.76681690 0.46401076 0.00000000
0.80271434 0.46121472 0.00000000
0.83719826 0.45808025 0.00000000
0.87217917 0.45461745 0.00000000
0.90498726 0.45022058 0.00000000
0.93674317 0.44665106 0.00000000
0.96799557 0.44233476 0.00000000
0.99801385 0.43762416 0.00000000
1.00000000 0.43260770 0.00000000
0.00000000 0.53131993 0.00000000
0.00000000 0.53128694 0.00000000
0.00000000 0.53124954 0.00000000
0.00000000 0.53119578 0.00000000
0.01941779 0.53110878 0.00000000
0.06515210 0.53085547 0.00000000
0.09826502 0.53043356 0.00000000
0.12788616 0.52987079 0.00000000
0.15542668 0.52920811 0.00000000
0.18454213 0.52857690 0.00000000
0.21449717 0.52836202 0.00000000
0.24585857 0.52811910 0.00000000
0.27875215 0.52784681 0.00000000
0.31410971 0.52754331 0.00000000
0.35210016 0.52656267 0.00000000
0.39346948 0.52507483 0.00000000
0.43649612 0.52456053 0.00000000
0.48317449 0.52329092 0.00000000
0.52804445 0.52170956 0.00000000
0.57151729 0.52058695 0.00000000
0.61264303 0.51858337 0.00000000
0.65305877 0.51666568 0.00000000
0.69172477 0.51507861 0.00000000
0.72873972 0.51233183 0.00000000
0.76608770 0.50944939 0.00000000
0.80197721 0.50657545 0.00000000
0.83645300 0.50359093 0.00000000
0.86950772 0.50038080 0.00000000
0.90284239 0.49702389 0.00000000
0.93600566 0.49369932 0.00000000
0.96553052 0.49028852 0.00000000
0.99673822 0.48605887 0.00000000
1.00000000 0.48140912 0.00000000
0.00000000 0.57288104 0.00000000
0.00000000 0.57285031 0.00000000
0.00000000 0.57281545 0.00000000
0.00000000 0.57276532 0.00000000
0.00280103 0.57269775 0.00000000
0.05399335 0.57261117 0.00000000
0.09107331 0.57249940 0.00000000
0.12331001 0.57211784 0.00000000
0.15071160 0.57145742 0.00000000
0.18043947 0.57069073 0.00000000
0.21036954 0.57001619 0.00000000
0.24204478 0.56975929 0.00000000
0.27663126 0.56944994 0.00000000
0.31174798 0.56830935 0.00000000
0.34978033 0.56709935 0.00000000
0.39131285 0.56668375 0.00000000
0.43440700 0.56628982 0.00000000
0.48090989 0.56552470 0.00000000
0.52643871 0.56350969 0.00000000
0.56956678 0.56287592 0.00000000
0.61179036 0.56053081 0.00000000
0.65074590 0.55981115 0.00000000
0.69046246 0.55784611 0.00000000
0.72799001 0.55609270 0.00000000
0.76388147 0.55356902 0.00000000
0.79976424 0.55070509 0.00000000
0.83568499 0.54887608 0.00000000
0.86873334 0.54580598 0.00000000
0.90207691 0.54242139 0.00000000
0.93339088 0.54028775 0.00000000
0.96473624 0.53659185 0.00000000
0.99480791 0.53230691 0.00000000
1.00000000 0.52840275 0.00000000
0.00000000 0.61250795 0.00000000
0.00000000 0.61247927 0.00000000
0.00000000 0.61244673 0.00000000
0.00000000 0.61239993 0.00000000
0.00000000 0.61233682 0.00000000
0.04243829 0.61225589 0.00000000
0.08496507 0.61215568 0.00000000
0.11752564 0.61203480 0.00000000
0.14715737 0.61183785 0.00000000
0.17707242 0.61119635 0.00000000
0.20787685 0.61032095 0.00000000
0.23945028 0.60946059 0.00000000
0.27330879 0.60921552 0.00000000
0.30871238 0.60894226 0.00000000
0.34653689 0.60863845 0.00000000
0.38712559 0.60775002 0.00000000
0.43140418 0.60617981 0.00000000
0.47801159 0.60566115 0.00000000
0.52429804 0.60396436 0.00000000
0.56682407 0.60284247 0.00000000
0.60916412 0.60227993 0.00000000
0.64962665 0.60000289 0.00000000
0.68831330 0.59910464 0.00000000
0.72703765 0.59713559 0.00000000
0.76266340 0.59564153 0.00000000
0.79853067 0.59300329 0.00000000
0.83298178 0.59038715 0.00000000
0.86793535 0.58894762 0.00000000
0.90128773 0.58595217 0.00000000
0.93260682 0.58289238 0.00000000
0.96392117 0.57973659 0.00000000
0.99396559 0.57663883 0.00000000
1.00000000 0.57323290 0.00000000
0.00000000 0.65026733 0.00000000
0.00000000 0.65024049 0.00000000
0.00000000 0.65021003 0.00000000
0.00000000 0.65016620 0.00000000
0.00000000 0.65010708 0.00000000
0.02725559 0.65003123 0.00000000
0.07607647 0.64993727 0.00000000
0.11084174 0.64982382 0.00000000
0.14141727 0.64968952 0.00000000
0.17202887 0.64953304 0.00000000
0.20332452 0.64918539 0.00000000
0.23570890 0.64822669 0.00000000
0.26941501 0.64719460 0.00000000
0.30540545 0.64679540 0.00000000
0.34308528 0.64650728 0.00000000
0.38426794 0.64618803 0.00000000
0.42827539 0.64583539 0.00000000
0.47504459 0.64496224 0.00000000
0.52146407 0.64317833 0.00000000
0.56553736 0.64268257 0.00000000
0.60754391 0.64186245 0.00000000
0.64690066 0.63972120 0.00000000
0.68747840 0.63908400 0.00000000
0.72451022 0.63660584 0.00000000
0.76185027 0.63575245 0.00000000
0.79771677 0.63305341 0.00000000
0.83216355 0.63193115 0.00000000
0.86633181 0.62930589 0.00000000
0.90041768 0.62643320 0.00000000
0.93180142 0.62466205 0.00000000
