Leica_M9_STD_33_Rec709.cube
TITLE "Leica_M9_STD_33_Rec709"
# ROGER WANG BEIJING 2026-05-16
LUT_3D_SIZE 9
DOMAIN_MIN 0.0 0.0 0.0
DOMAIN_MAX 1.0 1.0 1.0
0.00000000 0.00000000 0.00000000
0.08586344 0.00000000 0.00000000
0.17856777 0.00000000 0.00000000
0.29766154 0.00000000 0.00000000
0.45926509 0.00000000 0.00000000
0.63232670 0.00000000 0.00000000
0.78204027 0.00000000 0.00000000
0.91677312 0.00000000 0.00000000
1.00000000 0.00000000 0.00000000
0.00000000 0.08562422 0.00000000
0.08553558 0.08545423 0.00000000
0.17783057 0.08388055 0.00000000
0.29590759 0.07648082 0.00000000
0.45671865 0.05700547 0.00000000
0.62971331 0.01171368 0.00000000
0.78084215 0.00000000 0.00000000
0.91617056 0.00000000 0.00000000
1.00000000 0.00000000 0.00000000
0.00000000 0.17729739 0.00000000
0.08295791 0.17703132 0.00000000
0.17688199 0.17644844 0.00000000
0.29268051 0.17275983 0.00000000
0.45228005 0.16569745 0.00000000
0.62625116 0.15214289 0.00000000
0.77798412 0.13464847 0.00000000
0.91286709 0.10700077 0.00000000
1.00000000 0.05949703 0.00000000
0.00000000 0.29164454 0.00000000
0.07216344 0.29137057 0.00000000
0.17222640 0.29071967 0.00000000
0.29073271 0.28820293 0.00000000
0.44714486 0.28339328 0.00000000
0.62218911 0.27549476 0.00000000
0.77392041 0.26280734 0.00000000
0.91076583 0.24567997 0.00000000
1.00000000 0.22499708 0.00000000
0.00000000 0.44406109 0.00000000
0.04571645 0.44383594 0.00000000
0.16314250 0.44273600 0.00000000
0.28350307 0.44040282 0.00000000
0.44092525 0.43521033 0.00000000
0.61592817 0.42886737 0.00000000
0.76846764 0.41858104 0.00000000
0.90622744 0.40450149 0.00000000
1.00000000 0.38578975 0.00000000
0.00000000 0.61250795 0.00000000
0.00000000 0.61233682 0.00000000
0.14715737 0.61183785 0.00000000
0.27330879 0.60921552 0.00000000
0.43140418 0.60617981 0.00000000
0.60916412 0.60227993 0.00000000
0.76266340 0.59564153 0.00000000
0.90128773 0.58595217 0.00000000
1.00000000 0.57323290 0.00000000
0.00000000 0.75880797 0.00000000
0.00000000 0.75867235 0.00000000
0.12567299 0.75831818 0.00000000
0.25710109 0.75745804 0.00000000
0.41771154 0.75471667 0.00000000
0.59952642 0.75128072 0.00000000
0.75567361 0.74733068 0.01693075
0.89707122 0.74404719 0.09417879
1.00000000 0.74162018 0.15360682
0.12888681 0.89449500 0.12888681
0.12864011 0.89436729 0.12864011
0.16953912 0.89422246 0.13095190
0.28000114 0.89360717 0.14051387
0.43011190 0.89342738 0.16383906
0.61476592 0.89702960 0.21258053
0.77367489 0.89901057 0.27019581
0.91041699 0.90157184 0.33310073
0.99507949 0.90269082 0.38207251
0.33922432 0.99900188 0.34345562
0.33921229 0.99900286 0.34323245
0.34479463 0.99893970 0.34332378
0.40628181 0.99815476 0.35175107
0.51400690 0.99669074 0.37179747
0.66812183 0.99511417 0.41142952
0.80468616 0.99490594 0.45108850
0.91722795 0.99580138 0.48077479
0.99693945 0.99693945 0.49482829
0.00000000 0.00000000 0.08560035
0.08571864 0.00000000 0.08557457
0.17807993 0.00000000 0.08511648
0.29621545 0.00000000 0.08125344
0.45779649 0.00000000 0.07408457
0.63045977 0.00000000 0.06195067
0.78158663 0.00000000 0.04507879
0.91635855 0.00000000 0.02128875
1.00000000 0.00000000 0.00000000
0.00000000 0.08558521 0.08553031
0.08545154 0.08545154 0.08545154
0.17743941 0.08430358 0.08491605
0.29539716 0.07717799 0.08077804
0.45603151 0.05889455 0.07356910
0.62925933 0.01554506 0.06155911
0.77905745 0.00000000 0.04499176
0.91578062 0.00000000 0.02179089
1.00000000 0.00000000 0.00000000
0.00000000 0.17718019 0.08490588
0.08324333 0.17691765 0.08468491
0.17668048 0.17645543 0.08382449
0.29212171 0.17320295 0.07943263
0.45081731 0.16645937 0.07199384
0.62588035 0.15299354 0.06018838
0.77763154 0.13597005 0.04432738
0.91252691 0.10815408 0.02253823
1.00000000 0.06251883 0.00000000
0.00000000 0.29154454 0.08107297
0.07256779 0.29127223 0.08045890
0.17224935 0.29064220 0.07907592
0.29051172 0.28827935 0.07661299
0.44682466 0.28368653 0.06873745
0.62124949 0.27612025 0.05692525
0.77363887 0.26360429 0.04206175
0.91046108 0.24614291 0.02246719
1.00000000 0.22550316 0.00000000
0.00000000 0.44400325 0.07667047
0.04595199 0.44377960 0.07597381
0.16316752 0.44255554 0.07368823
0.28340160 0.44037848 0.06927845
0.44070952 0.43532878 0.06341221
0.61569993 0.42926032 0.05121196
0.76735619 0.41911623 0.03738199
0.90600523 0.40500799 0.02040352
1.00000000 0.38610015 0.00178370
0.00000000 0.61248290 0.07374901
0.00000000 0.61231312 0.07244195
0.14711019 0.61180641 0.06921082
0.27323165 0.60920463 0.06505266
0.43129561 0.60620648 0.05632505
0.60901261 0.60232877 0.04611395
0.76249178 0.59572534 0.03255168
0.90111071 0.58606084 0.01678829
1.00000000 0.57336676 0.00296771
0.00000000 0.75880150 0.07613740
0.00000000 0.75866701 0.07508890
0.12554062 0.75831576 0.07153164
0.25686946 0.75746619 0.06637537
0.41738148 0.75472947 0.05713358
0.59941990 0.75132286 0.04583164
0.75540051 0.74738405 0.04810259
0.89696233 0.74446768 0.10295773
1.00000000 0.74215923 0.15598259
0.12977407 0.89455481 0.16434004
0.12951321 0.89442696 0.16355519
0.16996040 0.89428171 0.16364514
0.28015247 0.89373459 0.16924767
0.43020239 0.89349827 0.18547014
0.61448680 0.89708660 0.22587788
0.77366802 0.89907622 0.27796971
0.91034421 0.90164598 0.33713027
0.99507470 0.90276906 0.38386794
0.33989609 0.99894767 0.35567853
0.33988652 0.99894844 0.35550769
0.34537975 0.99888480 0.35574132
0.40672531 0.99809546 0.36406416
0.51443338 0.99663544 0.38398992
0.66831466 0.99509522 0.42068301
0.80471517 0.99491347 0.45754455
0.91717334 0.99581654 0.48492015
0.99695467 0.99695467 0.49766288
0.00000000 0.00000000 0.17709059
0.08561383 0.00000000 0.17710319
0.17776564 0.00000000 0.17700308
0.29507638 0.00000000 0.17638616
0.45534267 0.00000000 0.17240576
0.62876355 0.00000000 0.16818656
0.77863917 0.00000000 0.16202002
0.91461272 0.00000000 0.15338072
1.00000000 0.00000000 0.14703525
0.00000000 0.08576086 0.17706665
0.08507671 0.08543896 0.17695240
0.17720091 0.08433559 0.17677668
0.29315070 0.07822387 0.17610752
0.45288934 0.06258197 0.17219296
0.62640430 0.02402375 0.16782959
0.77808043 0.00000000 0.16193006
0.91293052 0.00000000 0.15343299
1.00000000 0.00000000 0.14719361
0.00000000 0.17713068 0.17683562
0.08306523 0.17683823 0.17667347
0.17645374 0.17645374 0.17645374
0.29130814 0.17410288 0.17527165
0.44941455 0.16807828 0.17165540
0.62348775 0.15540235 0.16681856
0.77529005 0.13777993 0.16144156
0.91170791 0.11113219 0.15342125
1.00000000 0.06825488 0.14752547
0.00000000 0.29135164 0.17597735
0.07333789 0.29106858 0.17561589
0.17243250 0.29043760 0.17489200
0.28949239 0.28839999 0.17340450
0.44434070 0.28469522 0.17065163
0.61932698 0.27739993 0.16514022
0.77106956 0.26449972 0.16001263
0.90788819 0.24726596 0.15299870
1.00000000 0.22673760 0.14791002
0.00000000 0.44386684 0.17273947
0.04648300 0.44364309 0.17241634
0.16328175 0.44207920 0.17173085
0.28328670 0.44029379 0.17059191
0.44025601 0.43564343 0.16807939
0.61459526 0.43022777 0.16346161
0.76675066 0.42042347 0.15775616
0.90466229 0.40551740 0.15205910
1.00000000 0.38805058 0.14813707
0.00000000 0.61242001 0.17145544
0.00000000 0.61225259 0.17108519
0.14701476 0.61162078 0.17015006
0.27289447 0.60916843 0.16789136
0.43099166 0.60624356 0.16438272
0.60863843 0.60244513 0.16096092
0.76206106 0.59593342 0.15603498
0.90066942 0.58633002 0.15104778
1.00000000 0.57416211 0.14810521
0.00000000 0.75878463 0.17191929
0.00000000 0.75865267 0.17151461
0.12521514 0.75830797 0.17047966
0.25651634 0.75747840 0.16810554
0.41659303 0.75475678 0.16409761
0.59915999 0.75142168 0.15969806
0.75511366 0.74753623 0.16044789
0.89607916 0.74551439 0.18714464
1.00000000 0.74374185 0.22221378
0.13184631 0.89469712 0.22568098
0.13159541 0.89457174 0.22523936
0.17103027 0.89443189 0.22497568
0.28059271 0.89404503 0.22873934
0.43023680 0.89370583 0.24102013
0.61399330 0.89728754 0.27232343
0.77387892 0.89932523 0.31652825
0.91029032 0.90197419 0.36859319
0.99501973 0.90314728 0.41146142
0.34160360 0.99881399 0.38482402
0.34159439 0.99881469 0.38467347
0.34687077 0.99875192 0.38482853
0.40777840 0.99795886 0.39216323
0.51538724 0.99651630 0.41054846
0.66882185 0.99504990 0.44405300
0.80443824 0.99493771 0.47775166
0.91706268 0.99588669 0.50332953
0.99704742 0.99704742 0.51477573
0.00000000 0.00025588 0.29083793
0.08439242 0.00000000 0.29093890
0.17753755 0.00000000 0.29097910
0.29335063 0.00000000 0.29076058
0.45072381 0.00000000 0.28911877
0.62540585 0.00000000 0.28571366
0.77673078 0.00000000 0.28002974
0.91189243 0.00000000 0.27507297
1.00000000 0.00000000 0.26933667
0.00000000 0.08606422 0.29097903
0.08286152 0.08554230 0.29097969
0.17704635 0.08355610 0.29087960
0.29224128 0.07830635 0.29060501
0.45012328 0.06585492 0.28873183
0.62331130 0.03383084 0.28537544
0.77471506 0.00000000 0.27979961
0.91144952 0.00000000 0.27500756
1.00000000 0.00000000 0.26938266
0.00000000 0.17747256 0.29090525
0.07906645 0.17716393 0.29079596
0.17556424 0.17646065 0.29050193
0.29094067 0.17412894 0.28984100
0.44694930 0.16944751 0.28775531
0.62154332 0.15746103 0.28447100
0.77362314 0.14047590 0.27934801
0.91029907 0.11689330 0.27476295
1.00000000 0.07760863 0.26947139
0.00000000 0.29133160 0.29053584
0.07141909 0.29103737 0.29036384
0.17219065 0.29025162 0.28945722
0.28842571 0.28842571 0.28842571
0.44213543 0.28615593 0.28701458
0.61666957 0.27821055 0.28320667
0.76999458 0.26563655 0.27883244
0.90678444 0.25049256 0.27424145
1.00000000 0.23061432 0.26954170
0.00000000 0.44369695 0.28879402
0.04658798 0.44343525 0.28836082
0.16342605 0.44134056 0.28740410
0.28334903 0.43978292 0.28685578
0.43798730 0.43602301 0.28537178
0.61230197 0.43126133 0.28181465
0.76583300 0.42149045 0.27793017
0.90262062 0.40760616 0.27370060
1.00000000 0.39128147 0.26948273
0.00000000 0.61231651 0.28706617
0.00000000 0.61214990 0.28686090
0.14687907 0.61115781 0.28622450
0.27251996 0.60907639 0.28379529
0.43000738 0.60618271 0.28224595
0.60643215 0.60262161 0.27881468
0.75966328 0.59629451 0.27570398
0.89798812 0.58795359 0.27223800
1.00000000 0.57611389 0.26921498
0.00000000 0.75875326 0.28699947
0.00000000 0.75862461 0.28676569
0.12466722 0.75828832 0.28576989
0.25615233 0.75746867 0.28324014
0.41572664 0.75478458 0.28040985
0.59873097 0.75183075 0.27785887
0.75464089 0.74781296 0.27750797
0.89441909 0.74633062 0.29165981
1.00000000 0.74503911 0.31434479
0.13654342 0.89502502 0.32127440
0.13627979 0.89490144 0.32060803
0.17405329 0.89477222 0.31996063
0.28188239 0.89461977 0.32279272
0.43029009 0.89414167 0.32943643
0.61420807 0.89772864 0.35146667
0.77444025 0.89985384 0.38621350
0.91029452 0.90264311 0.42795242
0.99493404 0.90387672 0.46309896
0.34545316 0.99853084 0.44283171
0.34542686 0.99853270 0.44246437
0.35026252 0.99847471 0.44204601
0.41062656 0.99767310 0.44861670
0.51702249 0.99628822 0.46375351
0.66999863 0.99496888 0.49176158
0.80373132 0.99499575 0.51925071
0.91564234 0.99602019 0.54047538
0.99724039 0.99724039 0.54957173
0.00000000 0.00218284 0.44027813
0.08080291 0.00072555 0.44044274
0.17648318 0.00000000 0.44068892
0.29212066 0.00000000 0.44075749
0.44867380 0.00000000 0.44040908
0.62195596 0.00000000 0.43735758
0.77221607 0.00000000 0.43304822
0.90801224 0.00000000 0.42809072
1.00000000 0.00000000 0.42253651
0.00000000 0.08687630 0.44054583
0.07883216 0.08625644 0.44064733
0.17556419 0.08407053 0.44078214
0.29172834 0.07817468 0.44074909
0.44740574 0.06725139 0.44035810
0.62029688 0.04184639 0.43715778
0.77108822 0.00000000 0.43287450
0.90765714 0.00000000 0.42806526
1.00000000 0.00000000 0.42257501
0.00000000 0.17798922 0.44084804
0.07443125 0.17764717 0.44086264
0.17248860 0.17670806 0.44081845
0.29066380 0.17343972 0.44061102
0.44529401 0.16961944 0.44006514
0.61886508 0.15988994 0.43655975
0.77019861 0.14456804 0.43236839
0.90678983 0.12321310 0.42798480
1.00000000 0.08835654 0.42262453
0.00000000 0.29170988 0.44079562
0.06462684 0.29144322 0.44073440
0.16962680 0.29076549 0.44054397
0.28713047 0.28852468 0.43995939
0.44076483 0.28622012 0.43838141
0.61517152 0.27893880 0.43527012
0.76678125 0.26831116 0.43161189
0.90393921 0.25251395 0.42778550
1.00000000 0.23515167 0.42254623
0.00000000 0.44370786 0.44038140
0.04121740 0.44345211 0.44029128
0.16216746 0.44135406 0.43965093
0.28297517 0.43944743 0.43789559
0.43612946 0.43612946 0.43612946
0.60917909 0.43202561 0.43450133
0.76273229 0.42339050 0.43088272
0.90139000 0.40926577 0.42646898
1.00000000 0.39402866 0.42206414
0.00000000 0.61221561 0.43861300
0.00000000 0.61204686 0.43820432
0.14635625 0.61063670 0.43713509
0.27207038 0.60892782 0.43525483
0.42961484 0.60590617 0.43438525
0.60455692 0.60279933 0.43165661
0.75831296 0.59848984 0.42820626
0.89691745 0.58926069 0.42478333
1.00000000 0.57813518 0.42153880
0.00000000 0.75870749 0.43738186
0.00000000 0.75858135 0.43688274
0.12328376 0.75825060 0.43558402
0.25567938 0.75735697 0.43453483
0.41534151 0.75477278 0.43169635
0.59677242 0.75221304 0.42885428
0.75383388 0.74849175 0.42837459
0.89404300 0.74756040 0.43653271
1.00000000 0.74688866 0.45046908
0.14683488 0.89578156 0.45995569
0.14657214 0.89566043 0.45939312
0.18139035 0.89554771 0.45861287
0.28625403 0.89569012 0.45902636
0.43249051 0.89510716 0.46323941
0.61645909 0.89867344 0.47800393
0.77563693 0.90094178 0.50152210
0.91065998 0.90402822 0.53101926
0.99483942 0.90523024 0.55623929
0.35378399 0.99798330 0.54558656
0.35377198 0.99798404 0.54545403
0.35790732 0.99793341 0.54480457
0.41717487 0.99714748 0.54918613
0.52093660 0.99589802 0.55921247
0.67202922 0.99486544 0.57917712
0.80459325 0.99515314 0.59824779
0.91516135 0.99632491 0.61146008
0.99762655 0.99762655 0.61652266
0.00000000 0.00723117 0.60430250
0.07675807 0.00574166 0.60516384
0.17293419 0.00101310 0.60584413
0.29079071 0.00000000 0.60666561
0.44621573 0.00000000 0.60700209
0.61872823 0.00000000 0.60584564
0.76941231 0.00000000 0.60294790
0.90586851 0.00000000 0.59956925
1.00000000 0.00000000 0.59594953
0.00000000 0.08880098 0.60560439
0.07467975 0.08818605 0.60575776
0.17213252 0.08627363 0.60613756
0.29043523 0.08037061 0.60723515
0.44522309 0.06954137 0.60726864
0.61779450 0.04867002 0.60586776
0.76798059 0.00181016 0.60295256
0.90538002 0.00000000 0.59956973
1.00000000 0.00000000 0.59595988
0.00000000 0.17887584 0.60642805
0.06786808 0.17853534 0.60684053
0.17024040 0.17755410 0.60760740
0.28772798 0.17470604 0.60815959
0.44368948 0.17004588 0.60763826
0.61591282 0.16213003 0.60588771
0.76674479 0.14840894 0.60294503
0.90298673 0.12914684 0.59955840
1.00000000 0.09948802 0.59597711
0.00000000 0.29227383 0.60829631
0.05391525 0.29202590 0.60838477
0.16466048 0.29135432 0.60850094
0.28399899 0.28956036 0.60838353
0.44033494 0.28584437 0.60738538
0.61265961 0.27924018 0.60580037
0.76457155 0.27006860 0.60286138
0.90177748 0.25647662 0.59949052
1.00000000 0.24003451 0.59597363
0.00000000 0.44401467 0.60842059
0.02785783 0.44381341 0.60838789
0.15666049 0.44280062 0.60822793
0.27869937 0.44045648 0.60738830
0.43458041 0.43637952 0.60592717
0.60859777 0.43224969 0.60481717
0.76087746 0.42477068 0.60257228
0.89804290 0.41215620 0.59926795
1.00000000 0.39755265 0.59588204
0.00000000 0.61224383 0.60705200
0.00000000 0.61208152 0.60685143
0.14232823 0.61084944 0.60629213
0.26969839 0.60897006 0.60583014
0.42829217 0.60583759 0.60434713
0.60285575 0.60285575 0.60285575
0.75503482 0.59921515 0.60146091
0.89549682 0.59021208 0.59874147
1.00000000 0.57967135 0.59559658
0.00000000 0.75867292 0.60588195
0.00000000 0.75854844 0.60580982
0.12070399 0.75821956 0.60561528
0.25402680 0.75715106 0.60409500
0.41445937 0.75470130 0.60275188
0.59616398 0.75170999 0.60135809
0.75185746 0.75041216 0.60153951
0.89393575 0.74979244 0.60612276
0.99976513 0.75100325 0.61579007
0.16433269 0.89721536 0.62090662
0.16411787 0.89709940 0.62078211
0.19484007 0.89701520 0.62090746
0.29483214 0.89746140 0.62105433
0.43718188 0.89684016 0.62405110
0.62020631 0.90029178 0.63401147
0.77714958 0.90279830 0.65016095
0.91116300 0.90791573 0.67032864
0.99485432 0.90902104 0.68489813
0.36745563 0.99722236 0.67834275
0.36744647 0.99722282 0.67826327
0.37050144 0.99718484 0.67800440
0.42798290 0.99646803 0.67998679
0.52850524 0.99543487 0.68637627
0.67527142 0.99482231 0.69865180
0.80593981 0.99546039 0.70947627
0.91467768 0.99682713 0.71556046
0.99823059 0.99823059 0.71627970
0.00000000 0.01824327 0.74746159
0.07096463 0.01657185 0.74766377
0.17052292 0.01134811 0.74939767
0.28711767 0.00098377 0.75055467
0.44213151 0.00000000 0.75100172
0.61513542 0.00000000 0.75107382
0.76582974 0.00000000 0.75060059
0.90173844 0.00000000 0.74770571
1.00000000 0.00000000 0.74634704
0.00000000 0.09253746 0.74796158
0.06839859 0.09171597 0.74877814
0.16978394 0.09003384 0.75026498
0.28675467 0.08612756 0.75076275
0.44132658 0.07650070 0.75114647
0.61436802 0.05816938 0.75117026
0.76551633 0.02129449 0.75066347
0.90154124 0.00000000 0.74775163
1.00000000 0.00000000 0.74637683
0.00000000 0.18138128 0.75039952
0.06140835 0.18072885 0.75053305
0.16624139 0.17924596 0.75082448
0.28450439 0.17729701 0.75119297
0.44036651 0.17190062 0.75171997
0.61270602 0.16429200 0.75142743
0.76326970 0.15172757 0.75080280
0.90102685 0.13646914 0.74803793
1.00000000 0.11050904 0.74644474
0.00000000 0.29433455 0.75119888
0.04558811 0.29371161 0.75129252
0.16162473 0.29228396 0.75182982
0.28043532 0.29102009 0.75306283
0.43590901 0.28700746 0.75369416
0.61081618 0.28087359 0.75269736
0.76226882 0.27320837 0.75097874
0.89821439 0.26060680 0.74857174
1.00000000 0.24476716 0.74653548
0.00000000 0.44537034 0.75350806
0.01051154 0.44473406 0.75371462
0.15106891 0.44385571 0.75381518
0.27438020 0.44155804 0.75391866
0.43115605 0.43807833 0.75390673
0.60644005 0.43239070 0.75330570
0.75871681 0.42533313 0.75106290
0.89659617 0.41503787 0.74888223
1.00000000 0.40154109 0.74659058
0.00000000 0.61246765 0.75383985
0.00000000 0.61232407 0.75385616
0.13841654 0.61191601 0.75388245
0.26518502 0.60935065 0.75387436
0.42382489 0.60719931 0.75372674
0.60162074 0.60296145 0.75149928
0.75433437 0.59931752 0.75079052
0.89236221 0.59244998 0.74804429
0.99996000 0.58255268 0.74648816
0.00000000 0.75871955 0.75348715
0.00000000 0.75860099 0.75340397
0.11761088 0.75828604 0.75313438
0.25142567 0.75751581 0.75244010
0.41188188 0.75478626 0.75131106
0.59594026 0.75160247 0.75081735
0.75196566 0.75196566 0.75196566
0.89233181 0.75480300 0.75579960
0.99914858 0.75660813 0.76315627
0.18524102 0.89918213 0.76491054
0.18501290 0.89906582 0.76465101
0.21117455 0.89898840 0.76426920
0.30536818 0.89953797 0.76510835
0.44324780 0.89894480 0.76774355
0.62509770 0.90231257 0.77560103
0.78106038 0.90499031 0.78478145
0.91132439 0.91045786 0.79739613
0.99503001 0.91138088 0.80474142
0.38308165 0.99650865 0.80204204
0.38307467 0.99650893 0.80199109
0.38489370 0.99648779 0.80191534
0.43969348 0.99588408 0.80250223
0.53613643 0.99510309 0.80577532
0.67829853 0.99489434 0.81257779
0.80577953 0.99583109 0.81672763
0.91380998 0.99736895 0.81826562
0.99885147 0.99885147 0.81591335
0.00000000 0.03403194 0.87713010
0.06546681 0.03301301 0.87734032
0.16693485 0.02961770 0.87782379
0.28326830 0.01930601 0.87852375
0.43716232 0.00094515 0.88046448
0.61024600 0.00000000 0.88169785
0.76191708 0.00000000 0.88178273
0.89753292 0.00000000 0.88131772
1.00000000 0.00000000 0.87845111
0.00000000 0.09918493 0.87749962
0.06243181 0.09874149 0.87769316
0.16543361 0.09738120 0.87813904
0.28289125 0.09269901 0.87878601
0.43641470 0.08597841 0.88138317
0.60966804 0.07092704 0.88185494
0.76178855 0.04392356 0.88190040
0.89739595 0.00000000 0.88140378
1.00000000 0.00000000 0.87851335
0.00000000 0.18476960 0.87830116
0.05346705 0.18450755 0.87846109
0.16328952 0.18373823 0.87883082
0.28083660 0.18083331 0.88116204
0.43482488 0.17702742 0.88185028
0.60910201 0.16990168 0.88221847
0.76029256 0.15819846 0.88217875
0.89702663 0.14280774 0.88161073
1.00000000 0.12239679 0.87866427
0.00000000 0.29634158 0.88115086
0.03619271 0.29614396 0.88140943
0.15716767 0.29560230 0.88168891
0.27777814 0.29292575 0.88209709
0.43168526 0.29061386 0.88251468
0.60733809 0.28413213 0.88275451
0.75879005 0.27706424 0.88260542
0.89630218 0.26519508 0.88193745
1.00000000 0.25093725 0.87890569
0.00000000 0.44710740 0.88232938
0.00000000 0.44695503 0.88241550
0.14804892 0.44603500 0.88261610
0.27040117 0.44386094 0.88290949
0.42704130 0.44059564 0.88320226
0.60291543 0.43472872 0.88333138
0.75651305 0.42797420 0.88308920
0.89315064 0.41782054 0.88232493
1.00000000 0.40537116 0.88010217
0.00000000 0.61289991 0.88309334
0.00000000 0.61274539 0.88315193
0.13404014 0.61241091 0.88328869
0.26095345 0.61135963 0.88348834
0.41846135 0.60882421 0.88436178
0.59852891 0.60470848 0.88464251
0.75301378 0.59951924 0.88343145
0.89123334 0.59338637 0.88262897
0.99967258 0.58595896 0.88122249
0.00000000 0.75890435 0.88344859
0.00000000 0.75879717 0.88348026
0.11308805 0.75851233 0.88368045
0.24774575 0.75796408 0.88420373
0.40716894 0.75516307 0.88460956
0.59138889 0.75436123 0.88418013
0.75121547 0.75413377 0.88519232
0.89355468 0.75814027 0.88970074
0.99841092 0.76157614 0.89463463
0.20819832 0.90166266 0.89375581
0.20802433 0.90155479 0.89373780
0.22948218 0.90149340 0.89391209
0.31695657 0.90212469 0.89498556
0.45057214 0.90139345 0.89679223
0.62982702 0.90476692 0.90117379
0.78451779 0.90743379 0.90668769
0.91269753 0.91269753 0.91269753
0.99531930 0.91344915 0.91441005
0.39952219 0.99590493 0.91472214
0.39950225 0.99590558 0.91459283
0.40011542 0.99590043 0.91428154
0.45238608 0.99542435 0.91438328
0.54418084 0.99490272 0.91548281
0.68251560 0.99506919 0.91748163
0.80670945 0.99626743 0.91819621
0.91199757 0.99789798 0.91488266
0.99944595 0.99944595 0.91119675
0.00000000 0.05010883 0.99277480
0.05783992 0.04947129 0.99299483
0.16367904 0.04746185 0.99351694
0.27943469 0.04149234 0.99432458
0.43216414 0.02874808 0.99531689
0.60582806 0.00123204 0.99777557
0.75788172 0.00000000 0.99838454
0.89321630 0.00000000 0.99851291
1.00000000 0.00000000 0.99809557
0.00000000 0.10758528 0.99316543
0.05447229 0.10724150 0.99337304
0.16288359 0.10619226 0.99386627
0.27903084 0.10309727 0.99463071
0.43167390 0.09694913 0.99628267
0.60570150 0.08597943 0.99798396
0.75778318 0.06596703 0.99855156
0.89311960 0.02564998 0.99864481
1.00000000 0.00000000 0.99819731
0.00000000 0.19002049 0.99405388
0.04661528 0.18978196 0.99423500
0.15965087 0.18842326 0.99466643
0.27795984 0.18593393 0.99544509
0.43104243 0.18326679 0.99773191
0.60454213 0.17685562 0.99847845
0.75662361 0.16655946 0.99895432
0.89285031 0.15183900 0.99896758
1.00000000 0.13411435 0.99844872
0.00000000 0.30015446 0.99545308
0.02755018 0.29999497 0.99600601
0.15314893 0.29954304 0.99743384
0.27394990 0.29739404 0.99798351
0.42797492 0.29437010 0.99864159
0.60267795 0.29012758 0.99924949
0.75500117 0.28205943 0.99960115
0.89229719 0.27148811 0.99950016
1.00000000 0.25793283 0.99887083
0.00000000 0.45009954 0.99836847
0.00000000 0.44985749 0.99848281
0.14481161 0.44864345 0.99875757
0.26720306 0.44705428 0.99919126
0.42271255 0.44395259 0.99971389
0.59936789 0.43989448 1.00000000
0.75388983 0.43166024 1.00000000
0.89131891 0.42301519 1.00000000
1.00000000 0.41076641 0.99944316
0.00000000 0.61537707 0.99969021
0.00000000 0.61515235 0.99977810
0.13037154 0.61389941 0.99999067
0.25793642 0.61255501 1.00000000
0.41435594 0.61057715 1.00000000
0.59501413 0.60746391 1.00000000
0.75021138 0.60239545 1.00000000
0.88782535 0.59586119 0.99999435
0.99953518 0.58952816 0.99953518
0.00000000 0.75926587 1.00000000
0.00000000 0.75917108 1.00000000
0.10909203 0.75891827 0.99999651
0.24520903 0.75842746 0.99993325
0.40434594 0.75740344 0.99967075
0.58975616 0.75604666 0.99968346
0.75055379 0.75715726 1.00000000
0.89340138 0.76214708 0.99922392
0.99770523 0.76702479 0.99770523
0.23201153 0.90458607 1.00000000
0.23185724 0.90448628 1.00000000
0.24981700 0.90443840 1.00000000
0.33041971 0.90505872 0.99988429
0.45952780 0.90477793 0.99868987
0.63464608 0.90763343 0.99628547
0.78735077 0.91222828 0.99492990
0.91197918 0.91460292 0.99499278
0.99560013 0.91468245 0.99560013
0.41489455 0.99550597 0.99550597
0.41489455 0.99550597 0.99550597
0.41489455 0.99550597 0.99550597
0.46445673 0.99514628 0.99514628
0.55161268 0.99483021 0.99483021
0.68446303 0.99525701 0.99525701
0.80535438 0.99662026 0.99662026
0.90986206 0.99836392 0.99836392
1.00000000 1.00000000 1.00000000
