Leica_M9_STD_33_Rec709.cube
TITLE "Leica_M9_STD_33_Rec709"
# ROGER WANG BEIJING 2026-05-16
LUT_3D_SIZE 5
DOMAIN_MIN 0.0 0.0 0.0
DOMAIN_MAX 1.0 1.0 1.0
0.00000000 0.00000000 0.00000000
0.17856777 0.00000000 0.00000000
0.45926509 0.00000000 0.00000000
0.78204027 0.00000000 0.00000000
1.00000000 0.00000000 0.00000000
0.00000000 0.17729739 0.00000000
0.17688199 0.17644844 0.00000000
0.45228005 0.16569745 0.00000000
0.77798412 0.13464847 0.00000000
1.00000000 0.05949703 0.00000000
0.00000000 0.44406109 0.00000000
0.16314250 0.44273600 0.00000000
0.44092525 0.43521033 0.00000000
0.76846764 0.41858104 0.00000000
1.00000000 0.38578975 0.00000000
0.00000000 0.75880797 0.00000000
0.12567299 0.75831818 0.00000000
0.41771154 0.75471667 0.00000000
0.75567361 0.74733068 0.01693075
1.00000000 0.74162018 0.15360682
0.33922432 0.99900188 0.34345562
0.34479463 0.99893970 0.34332378
0.51400690 0.99669074 0.37179747
0.80468616 0.99490594 0.45108850
0.99693945 0.99693945 0.49482829
0.00000000 0.00000000 0.17709059
0.17776564 0.00000000 0.17700308
0.45534267 0.00000000 0.17240576
0.77863917 0.00000000 0.16202002
1.00000000 0.00000000 0.14703525
0.00000000 0.17713068 0.17683562
0.17645374 0.17645374 0.17645374
0.44941455 0.16807828 0.17165540
0.77529005 0.13777993 0.16144156
1.00000000 0.06825488 0.14752547
0.00000000 0.44386684 0.17273947
0.16328175 0.44207920 0.17173085
0.44025601 0.43564343 0.16807939
0.76675066 0.42042347 0.15775616
1.00000000 0.38805058 0.14813707
0.00000000 0.75878463 0.17191929
0.12521514 0.75830797 0.17047966
0.41659303 0.75475678 0.16409761
0.75511366 0.74753623 0.16044789
1.00000000 0.74374185 0.22221378
0.34160360 0.99881399 0.38482402
0.34687077 0.99875192 0.38482853
0.51538724 0.99651630 0.41054846
0.80443824 0.99493771 0.47775166
0.99704742 0.99704742 0.51477573
0.00000000 0.00218284 0.44027813
0.17648318 0.00000000 0.44068892
0.44867380 0.00000000 0.44040908
0.77221607 0.00000000 0.43304822
1.00000000 0.00000000 0.42253651
0.00000000 0.17798922 0.44084804
0.17248860 0.17670806 0.44081845
0.44529401 0.16961944 0.44006514
0.77019861 0.14456804 0.43236839
1.00000000 0.08835654 0.42262453
0.00000000 0.44370786 0.44038140
0.16216746 0.44135406 0.43965093
0.43612946 0.43612946 0.43612946
0.76273229 0.42339050 0.43088272
1.00000000 0.39402866 0.42206414
0.00000000 0.75870749 0.43738186
0.12328376 0.75825060 0.43558402
0.41534151 0.75477278 0.43169635
0.75383388 0.74849175 0.42837459
1.00000000 0.74688866 0.45046908
0.35378399 0.99798330 0.54558656
0.35790732 0.99793341 0.54480457
0.52093660 0.99589802 0.55921247
0.80459325 0.99515314 0.59824779
0.99762655 0.99762655 0.61652266
0.00000000 0.01824327 0.74746159
0.17052292 0.01134811 0.74939767
0.44213151 0.00000000 0.75100172
0.76582974 0.00000000 0.75060059
1.00000000 0.00000000 0.74634704
0.00000000 0.18138128 0.75039952
0.16624139 0.17924596 0.75082448
0.44036651 0.17190062 0.75171997
0.76326970 0.15172757 0.75080280
1.00000000 0.11050904 0.74644474
0.00000000 0.44537034 0.75350806
0.15106891 0.44385571 0.75381518
0.43115605 0.43807833 0.75390673
0.75871681 0.42533313 0.75106290
1.00000000 0.40154109 0.74659058
0.00000000 0.75871955 0.75348715
0.11761088 0.75828604 0.75313438
0.41188188 0.75478626 0.75131106
0.75196566 0.75196566 0.75196566
0.99914858 0.75660813 0.76315627
0.38308165 0.99650865 0.80204204
0.38489370 0.99648779 0.80191534
0.53613643 0.99510309 0.80577532
0.80577953 0.99583109 0.81672763
0.99885147 0.99885147 0.81591335
0.00000000 0.05010883 0.99277480
0.16367904 0.04746185 0.99351694
0.43216414 0.02874808 0.99531689
0.75788172 0.00000000 0.99838454
1.00000000 0.00000000 0.99809557
0.00000000 0.19002049 0.99405388
0.15965087 0.18842326 0.99466643
0.43104243 0.18326679 0.99773191
0.75662361 0.16655946 0.99895432
1.00000000 0.13411435 0.99844872
0.00000000 0.45009954 0.99836847
0.14481161 0.44864345 0.99875757
0.42271255 0.44395259 0.99971389
0.75388983 0.43166024 1.00000000
1.00000000 0.41076641 0.99944316
0.00000000 0.75926587 1.00000000
0.10909203 0.75891827 0.99999651
0.40434594 0.75740344 0.99967075
0.75055379 0.75715726 1.00000000
0.99770523 0.76702479 0.99770523
0.41489455 0.99550597 0.99550597
0.41489455 0.99550597 0.99550597
0.55161268 0.99483021 0.99483021
0.80535438 0.99662026 0.99662026
1.00000000 1.00000000 1.00000000
